images_sukapura_svg/cmd/lc_sendmail.svg

<svg viewBox="0 0 24 24" xmlns="http://www.w3.org/2000/svg" xmlns:xlink="http://www.w3.org/1999/xlink"><linearGradient id="a" gradientTransform="translate(-38 -11)" gradientUnits="userSpaceOnUse" x1="7" x2="7" y1="20" y2="3"><stop offset="0" stop-color="#f5f5f5"/><stop offset=".3888889" stop-color="#fdfdfd"/><stop offset="1" stop-color="#fff"/></linearGradient><linearGradient id="b" gradientUnits="userSpaceOnUse" x1="11" x2="11" xlink:href="#a" y1="18" y2="6"/><linearGradient id="c" gradientUnits="userSpaceOnUse" x1="12" x2="12" xlink:href="#a" y1="13.568359" y2="6"/><filter id="d" color-interpolation-filters="sRGB" height="1.123429" width="1.078546" x="-.039273" y="-.061714"><feGaussianBlur stdDeviation=".36"/></filter><path d="m2 5.5c-.554 0-1 .446-1 1v12c0 .554.446 1 1 1h20c.554 0 1-.446 1-1v-12c0-.554-.446-1-1-1zm0 1h20v12h-20z" filter="url(#d)" opacity=".15"/><path d="m2 6h20v12h-20z" fill="url(#b)"/><path d="m2 17 7-4-1-1-6 4z" fill="#bcbcc0"/><path d="m2 5c-.554 0-1 .446-1 1v12c0 .554.446 1 1 1h20c.554 0 1-.446 1-1v-12c0-.554-.446-1-1-1zm0 1h20v12h-20z" fill="#98989d"/><path d="m22 17-7-4 1-1 6 4z" fill="#bcbcc0"/><path d="m2 8v1l8 5 2 .568359 2-.568359 8-5v-1l-8 5-2 .568359-2-.568359z" fill="#98989d"/><path d="m2 8v-2h20v2l-8 5-2 .568359-2-.568359z" fill="url(#c)"/><path d="m2.5 7.5v-1h19v1 .2769837l-7.5 4.7230163-2 .568359-2-.568359-7.5-4.7277034z" fill="none" stroke="#fff"/></svg>

<?xml version="1.0" encoding="UTF-8" standalone="no"?>
<svg
   xmlns:dc="http://purl.org/dc/elements/1.1/"
   xmlns:cc="http://creativecommons.org/ns#"
   xmlns:rdf="http://www.w3.org/1999/02/22-rdf-syntax-ns#"
   xmlns:svg="http://www.w3.org/2000/svg"
   xmlns="http://www.w3.org/2000/svg"
   xmlns:xlink="http://www.w3.org/1999/xlink"
   xmlns:sodipodi="http://sodipodi.sourceforge.net/DTD/sodipodi-0.dtd"
   xmlns:inkscape="http://www.inkscape.org/namespaces/inkscape"
   viewBox="0 0 24 24"
   version="1.1"
   id="svg14"
   sodipodi:docname="lc_sendmail.svg"
   inkscape:version="0.92.3 (unknown)"
   inkscape:export-filename="/home/rizmut/Dokumen/Rizmut/Github/libreoffice-style-sukapura/images_sukapura/cmd/lc_sendmail.png"
   inkscape:export-xdpi="96"
   inkscape:export-ydpi="96">
  <metadata
     id="metadata20">
    <rdf:RDF>
      <cc:Work
         rdf:about="">
        <dc:format>image/svg+xml</dc:format>
        <dc:type
           rdf:resource="http://purl.org/dc/dcmitype/StillImage" />
        <dc:title></dc:title>
      </cc:Work>
    </rdf:RDF>
  </metadata>
  <defs
     id="defs18">
    <linearGradient
       gradientTransform="translate(-38,-11)"
       id="a"
       gradientUnits="userSpaceOnUse"
       x1="7"
       x2="7"
       y1="20"
       y2="3">
      <stop
         offset="0"
         stop-color="#f5f5f5"
         id="stop1016" />
      <stop
         offset=".3888889"
         stop-color="#fdfdfd"
         id="stop1018" />
      <stop
         offset="1"
         stop-color="#fff"
         id="stop1020" />
    </linearGradient>
    <linearGradient
       inkscape:collect="always"
       xlink:href="#a"
       id="linearGradient1611"
       x1="11"
       y1="18"
       x2="11"
       y2="6"
       gradientUnits="userSpaceOnUse" />
    <linearGradient
       gradientTransform="translate(75,-7)"
       id="a-367"
       gradientUnits="userSpaceOnUse"
       x1="14"
       x2="13.79661"
       y1="22"
       y2="2.1355929">
      <stop
         offset="0"
         stop-color="#0040dd"
         id="stop2206" />
      <stop
         offset="1"
         stop-color="#0a84ff"
         id="stop2208" />
    </linearGradient>
    <clipPath
       clipPathUnits="userSpaceOnUse"
       id="clipPath842">
      <rect
         style="fill:#ff0000;fill-opacity:0.78431373;stroke:none;stroke-opacity:1"
         id="rect844"
         width="27.966103"
         height="22.20339"
         x="-30"
         y="-228.20338" />
    </clipPath>
    <linearGradient
       inkscape:collect="always"
       xlink:href="#a"
       id="linearGradient861"
       x1="12"
       y1="13.568359"
       x2="12"
       y2="6"
       gradientUnits="userSpaceOnUse" />
    <filter
       inkscape:collect="always"
       style="color-interpolation-filters:sRGB"
       id="filter2246"
       x="-0.039272727"
       width="1.0785455"
       y="-0.061714286"
       height="1.1234286">
      <feGaussianBlur
         inkscape:collect="always"
         stdDeviation="0.36"
         id="feGaussianBlur2248" />
    </filter>
  </defs>
  <sodipodi:namedview
     pagecolor="#ffffff"
     bordercolor="#666666"
     borderopacity="1"
     objecttolerance="10"
     gridtolerance="10"
     guidetolerance="10"
     inkscape:pageopacity="0"
     inkscape:pageshadow="2"
     inkscape:window-width="1366"
     inkscape:window-height="706"
     id="namedview16"
     showgrid="true"
     inkscape:zoom="9.8333333"
     inkscape:cx="11.27678"
     inkscape:cy="0.16097703"
     inkscape:window-x="0"
     inkscape:window-y="0"
     inkscape:window-maximized="1"
     inkscape:current-layer="svg14">
    <inkscape:grid
       type="xygrid"
       id="grid827"
       spacingx="0.5"
       spacingy="0.5"
       empspacing="2" />
  </sodipodi:namedview>
  <path
     style="fill:#000000;fill-opacity:1;stroke:none;opacity:0.15;filter:url(#filter2246)"
     id="path873"
     d="m 2,5.5 c -0.554,0 -1,0.446 -1,1 v 12 c 0,0.554 0.446,1 1,1 h 20 c 0.554,0 1,-0.446 1,-1 v -12 c 0,-0.554 -0.446,-1 -1,-1 z m 0,1 h 20 v 12 H 2 Z"
     inkscape:connector-curvature="0" />
  <path
     d="m2 6h20v12h-20z"
     fill="#fff"
     id="path2"
     style="fill-opacity:1;fill:url(#linearGradient1611)" />
  <path
     style="fill:#bcbcc0;stroke:none;stroke-width:1px;stroke-linecap:butt;stroke-linejoin:miter;stroke-opacity:1;fill-opacity:1"
     d="M 2,17 9,13 8,12 2,16 Z"
     id="path863"
     inkscape:connector-curvature="0" />
  <path
     d="m2 5c-.554 0-1 .446-1 1v12c0 .554.446 1 1 1h20c .554 0 1-.446 1-1v-12c0-.554-.446-1-1-1zm0 1h20v12h-20z"
     fill="#808080"
     id="path12"
     style="fill:#98989d;fill-opacity:1" />
  <path
     inkscape:connector-curvature="0"
     id="path865"
     d="m 22,17 -7,-4 1,-1 6,4 z"
     style="fill:#bcbcc0;fill-opacity:1;stroke:none;stroke-width:1px;stroke-linecap:butt;stroke-linejoin:miter;stroke-opacity:1" />
  <path
     style="fill:#98989d;stroke:none;stroke-width:1px;stroke-linecap:butt;stroke-linejoin:miter;stroke-opacity:1;fill-opacity:1"
     d="M 2 8 L 2 9 L 10 14 L 12 14.568359 L 14 14 L 22 9 L 22 8 L 14 13 L 12 13.568359 L 10 13 L 2 8 z "
     id="path850" />
  <path
     id="path853"
     d="M 2,8 V 6 H 22 V 8 L 14,13 12,13.568359 10,13 Z"
     style="fill:url(#linearGradient861);fill-opacity:1;stroke:none;stroke-width:1px;stroke-linecap:butt;stroke-linejoin:miter;stroke-opacity:1"
     inkscape:connector-curvature="0"
     sodipodi:nodetypes="cccccccc" />
  <path
     sodipodi:nodetypes="cccccccccc"
     inkscape:connector-curvature="0"
     style="fill:none;fill-opacity:1;stroke:#ffffff;stroke-width:1px;stroke-linecap:butt;stroke-linejoin:miter;stroke-opacity:1"
     d="m 2.5,7.5 v -1 h 19 v 1 0.2769837 L 14,12.5 12,13.068359 10,12.5 2.5,7.7722966 Z"
     id="path867" />
</svg>
